X:115
T:Hip Hornpipe. WM.115
M:C
L:1/8
Q:1/2=90
S:Wm.Mittell’s MS, New Romney,Kent,1799
R:.Hornpipe
O:England
A:Kent
N:Listed without a title but appears earlier in the book under this
N:title in a different key
Z:vmp.Chris Partington
K:D
(3ABc|d2(FG) AFAF|d2(FG) AFAF|BAGFE2ef|gefd dcBA|!
d2(FG) AFAF|d2(FG) AFAF|BAGFE2ef|gedcd2:|!
|:z2|f2(df) dfdf|e2cd cdcd|f2(df) dfdf|edcBA2Bc|!
(dB).B.B (cA).A.A|(dB).B.B (cA).A.A|dfed cBA”?”G|A2A2A2:|
W:perhaps the noteG in bar 7 of the B strain should be sharpened

